X:1
T:Aquarius
C:Megan Wobus
S:Megan Wobus composed 4/1/2002
M:2/4
R:reel
K:dmin
|: cGF_E D2 cG | F_E D2 cGF_E | D2DD E2EE | F2G2 A2B2 |
  cGF_E D2 cG | F_E D2 cGF_E | D2DD E2EE | FGFE D4 :|
K:D
|: B3 B3 BB | ABAG FDFA | B3 B3 B2 | A3 A3 c2 |
 B3 B3 BB | ABAG FDFG | ABcd efgf | edcB A4 :|
W:Copyright 2002 Megan Wobus, PGTPPCATPL AORR
